resources/haticons/SVG/atm.svg

<!-- Generated by IcoMoon.io -->
<svg version="1.1" xmlns="http://www.w3.org/2000/svg" width="24" height="24" viewBox="0 0 24 24">
<title>atm</title>
<path d="M21 9q0.422 0 0.703 0.281t0.281 0.703v5.016h-1.5v-4.5h-0.984v3.516h-1.5v-3.516h-0.984v4.5h-1.5v-5.016q0-0.422 0.281-0.703t0.703-0.281h4.5zM5.484 12v-1.5h-1.969v1.5h1.969zM6 9q0.422 0 0.703 0.281t0.281 0.703v5.016h-1.5v-1.5h-1.969v1.5h-1.5v-5.016q0-0.422 0.281-0.703t0.703-0.281h3zM8.016 9h6v1.5h-2.25v4.5h-1.5v-4.5h-2.25v-1.5z"></path>
</svg>

<svg xmlns="http://www.w3.org/2000/svg" width="24" height="24"><path d="M21 9q.422 0 .703.281t.281.703V15h-1.5v-4.5H19.5v3.516H18V10.5h-.984V15h-1.5V9.984q0-.422.281-.703T16.5 9H21zM5.484 12v-1.5H3.515V12h1.969zM6 9q.422 0 .703.281t.281.703V15h-1.5v-1.5H3.515V15h-1.5V9.984q0-.422.281-.703T2.999 9h3zm2.016 0h6v1.5h-2.25V15h-1.5v-4.5h-2.25V9z"/></svg>
